public/img/tools.svg

<svg width="48" height="44" viewBox="0 0 48 44" fill="none" xmlns="http://www.w3.org/2000/svg">
<path d="M28.1604 29.4013L33.1094 24.4523L47.1 38.443L42.151 43.392L28.1604 29.4013ZM36.8334 17.3333C41.3367 17.3333 45 13.67 45 9.16664C45 7.8133 44.6267 6.5533 44.0434 5.4333L37.7434 11.7333L34.2667 8.25664L40.5667 1.95664C39.4467 1.3733 38.1867 0.999971 36.8334 0.999971C32.33 0.999971 28.6667 4.6633 28.6667 9.16664C28.6667 10.1233 28.8534 11.0333 29.1567 11.8733L24.84 16.19L20.6867 12.0366L22.3434 10.38L19.0534 7.08997L24 2.1433C22.6875 0.832433 20.9084 0.0961304 19.0534 0.0961304C17.1984 0.0961304 15.4192 0.832433 14.1067 2.1433L5.84669 10.4033L9.13669 13.6933H2.55669L0.900024 15.35L9.16002 23.61L10.8167 21.9533V15.35L14.1067 18.64L15.7634 16.9833L19.9167 21.1366L2.62669 38.4266L7.57336 43.3733L34.1267 16.8433C34.9667 17.1466 35.8767 17.3333 36.8334 17.3333Z" fill="#434343"/>
</svg>

<svg width="48" height="44" fill="none" xmlns="http://www.w3.org/2000/svg"><path d="M28.16 29.401l4.95-4.949L47.1 38.443l-4.949 4.949-13.99-13.99zm8.673-12.068c4.504 0 8.167-3.663 8.167-8.166 0-1.354-.373-2.614-.957-3.734l-6.3 6.3-3.476-3.476 6.3-6.3C39.447 1.373 38.187 1 36.833 1c-4.503 0-8.166 3.663-8.166 8.167 0 .956.186 1.866.49 2.706L24.84 16.19l-4.153-4.153 1.656-1.657-3.29-3.29L24 2.143a7 7 0 00-9.893 0l-8.26 8.26 3.29 3.29h-6.58L.9 15.35l8.26 8.26 1.657-1.657V15.35l3.29 3.29 1.656-1.657 4.154 4.154-17.29 17.29 4.946 4.946 26.554-26.53c.84.304 1.75.49 2.706.49z" fill="#434343"/></svg>
